src/img/log-out-ico.svg

<svg width="14" height="14" viewBox="0 0 14 14" fill="none" xmlns="http://www.w3.org/2000/svg">
<path d="M11.8125 0H2.1875C0.981313 0 1.28307e-07 0.981313 1.28307e-07 2.1875V3.28125C1.28307e-07 3.58329 0.244836 3.82812 0.546875 3.82812C0.848914 3.82812 1.09375 3.58329 1.09375 3.28125V2.1875C1.09375 1.58441 1.58441 1.09375 2.1875 1.09375H11.8125C12.4156 1.09375 12.9062 1.58441 12.9062 2.1875V11.8125C12.9062 12.4156 12.4156 12.9062 11.8125 12.9062H2.1875C1.58441 12.9062 1.09375 12.4156 1.09375 11.8125V10.7188C1.09375 10.4167 0.848914 10.1719 0.546875 10.1719C0.244836 10.1719 1.28307e-07 10.4167 1.28307e-07 10.7188V11.8125C1.28307e-07 13.0187 0.981313 14 2.1875 14H11.8125C13.0187 14 14 13.0187 14 11.8125V2.1875C14 0.981313 13.0187 0 11.8125 0Z" fill="#424552"/>
<path d="M0.479941 5.81239L2.52482 3.76937C2.73848 3.5559 3.08473 3.55607 3.29821 3.76973C3.51168 3.98339 3.51152 4.32965 3.29785 4.54312L1.25314 6.58594C1.03991 6.79917 1.03991 7.14611 1.25314 7.35933L1.25552 7.36174L3.30039 9.4321C3.51264 9.64699 3.5105 9.99325 3.29561 10.2055C3.18905 10.3108 3.05017 10.3633 2.91135 10.3633C2.77025 10.3633 2.62921 10.309 2.52225 10.2007L0.47841 8.13141C-0.159957 7.49162 -0.159492 6.45182 0.479941 5.81239Z" fill="#424552"/>
<path d="M3.29413 6.45312H9.11835C9.42039 6.45312 9.66523 6.69796 9.66523 7C9.66523 7.30204 9.42039 7.54688 9.11835 7.54688H3.29413C2.99209 7.54688 2.74726 7.30204 2.74726 7C2.74726 6.69796 2.99209 6.45312 3.29413 6.45312Z" fill="#424552"/>
</svg>

<svg width="14" height="14" fill="none" xmlns="http://www.w3.org/2000/svg"><path d="M11.813 0H2.187A2.19 2.19 0 000 2.188V3.28a.547.547 0 101.094 0V2.187c0-.603.49-1.093 1.093-1.093h9.626c.603 0 1.093.49 1.093 1.093v9.626c0 .603-.49 1.093-1.094 1.093H2.188c-.604 0-1.094-.49-1.094-1.094V10.72a.547.547 0 10-1.094 0v1.094A2.19 2.19 0 002.188 14h9.624A2.19 2.19 0 0014 11.812V2.188A2.19 2.19 0 0011.812 0z" fill="#424552"/><path d="M.48 5.812L2.525 3.77a.547.547 0 01.773.774L1.253 6.586a.547.547 0 000 .773l.003.003L3.3 9.432a.547.547 0 01-.778.769L.478 8.13A1.642 1.642 0 01.48 5.812z" fill="#424552"/><path d="M3.294 6.453h5.824a.547.547 0 110 1.094H3.294a.547.547 0 110-1.094z" fill="#424552"/></svg>
